symbols/web/cast_for_education/materialsymbolsrounded/cast_for_education_wght700fill1_48px.svg

<svg xmlns="http://www.w3.org/2000/svg" height="48" width="48"><path d="M29.15 24q.15 0 .6-.15l6.7-3.9q.3-.15.475-.45.175-.3.175-.6t-.175-.6q-.175-.3-.475-.5l-6.7-3.9q-.1 0-.6-.1-.15 0-.55.1l-6.75 3.9q-.3.2-.475.5t-.175.6q0 .3.175.6t.475.45l6.75 3.9q.05.05.55.15Zm0 7.3q.3 0 1.2-.35l3.7-2.15q.55-.35.875-.875.325-.525.325-1.175V22.5l-6.1 3.6-6.1-3.6v4.25q0 .65.325 1.175t.875.875l3.7 2.15q.3.15.6.25t.6.1Zm-7.65 9.95q0-3.85-1.475-7.3-1.475-3.45-4-6.025t-5.95-4.075q-3.425-1.5-7.275-1.5v-10.9q0-1.9 1.375-3.325Q5.55 6.7 7.5 6.7h33.1q1.9 0 3.325 1.425Q45.35 9.55 45.35 11.45v25.1q0 1.9-1.425 3.3t-3.325 1.4Zm-11.6 0q-.7 0-1.125-.4-.425-.4-.575-1.05-.4-1.45-1.475-2.55-1.075-1.1-2.475-1.55-.65-.15-1.05-.65t-.4-1.1q0-.6.45-1.025.45-.425 1.05-.325 2.65.5 4.55 2.475t2.4 4.675q.1.65-.325 1.075-.425.425-1.025.425Zm6.55 0q-.65 0-1.075-.425-.425-.425-.475-1.075-.55-4.2-3.5-7.225Q8.45 29.5 4.3 28.95q-.65-.05-1.075-.5Q2.8 28 2.8 27.4q0-.65.425-1.05T4.3 26q5.45.55 9.225 4.425Q17.3 34.3 17.85 39.75q.05.65-.375 1.075-.425.425-1.025.425Z"/></svg>

<svg xmlns="http://www.w3.org/2000/svg" height="48" width="48"><path d="M29.15 24Q29.3 24 29.75 23.85L36.45 19.95Q36.75 19.8 36.925 19.5Q37.1 19.2 37.1 18.9Q37.1 18.6 36.925 18.3Q36.75 18 36.45 17.8L29.75 13.9Q29.65 13.9 29.15 13.8Q29 13.8 28.6 13.9L21.85 17.8Q21.55 18 21.375 18.3Q21.2 18.6 21.2 18.9Q21.2 19.2 21.375 19.5Q21.55 19.8 21.85 19.95L28.6 23.85Q28.65 23.9 29.15 24ZM29.15 31.3Q29.45 31.3 30.35 30.95L34.05 28.8Q34.6 28.45 34.925 27.925Q35.25 27.4 35.25 26.75V22.5L29.15 26.1L23.05 22.5V26.75Q23.05 27.4 23.375 27.925Q23.7 28.45 24.25 28.8L27.95 30.95Q28.25 31.1 28.55 31.2Q28.85 31.3 29.15 31.3ZM21.5 41.25Q21.5 37.4 20.025 33.95Q18.55 30.5 16.025 27.925Q13.5 25.35 10.075 23.85Q6.65 22.35 2.8 22.35V11.45Q2.8 9.55 4.175 8.125Q5.55 6.7 7.5 6.7H40.6Q42.5 6.7 43.925 8.125Q45.35 9.55 45.35 11.45V36.55Q45.35 38.45 43.925 39.85Q42.5 41.25 40.6 41.25ZM9.9 41.25Q9.2 41.25 8.775 40.85Q8.35 40.45 8.2 39.8Q7.8 38.35 6.725 37.25Q5.65 36.15 4.25 35.7Q3.6 35.55 3.2 35.05Q2.8 34.55 2.8 33.95Q2.8 33.35 3.25 32.925Q3.7 32.5 4.3 32.6Q6.95 33.1 8.85 35.075Q10.75 37.05 11.25 39.75Q11.35 40.4 10.925 40.825Q10.5 41.25 9.9 41.25ZM16.45 41.25Q15.8 41.25 15.375 40.825Q14.95 40.4 14.9 39.75Q14.35 35.55 11.4 32.525Q8.45 29.5 4.3 28.95Q3.65 28.9 3.225 28.45Q2.8 28 2.8 27.4Q2.8 26.75 3.225 26.35Q3.65 25.95 4.3 26Q9.75 26.55 13.525 30.425Q17.3 34.3 17.85 39.75Q17.9 40.4 17.475 40.825Q17.05 41.25 16.45 41.25Z"/></svg>
